vessel_track/img/wave-ico.svg

<svg width="32" height="32" viewBox="0 0 32 32" fill="none" xmlns="http://www.w3.org/2000/svg">
<path d="M6.49963 25.3335C6.49963 23.8607 7.76816 22.6668 9.33297 22.6668C10.8978 22.6668 12.1663 23.8607 12.1663 25.3335C12.1663 23.8607 13.4348 22.6668 14.9996 22.6668C16.5644 22.6668 17.833 23.8607 17.833 25.3335C17.833 23.8607 19.1015 22.6668 20.6663 22.6668C22.2311 22.6668 23.4996 23.8607 23.4996 25.3335M29.1663 25.3335C29.1663 23.8607 27.8978 22.6668 26.333 22.6668C24.7682 22.6668 23.4996 23.8607 23.4996 25.3335" stroke="white" stroke-width="1.5" stroke-linecap="round" stroke-linejoin="round"/>
<mask id="path-2-inside-1" fill="white">
<path fill-rule="evenodd" clip-rule="evenodd" d="M19.9443 16.3439C19.2283 14.8934 19.4214 13.1378 20.4151 12.0749C20.8429 11.6175 21.7477 11.418 22.3888 11.6386C22.872 11.805 23.2052 11.9849 23.499 12.4286C23.6649 12.6791 23.7848 13.1429 23.7848 13.1429C23.7848 13.1429 24.9277 11.7796 24.9277 9.96825C24.9277 7.70582 22.7166 6 19.7849 6C14.794 6 13.52 8.55085 12.2492 11.0951C12.0035 11.587 11.758 12.0787 11.4857 12.5516C10.5001 14.2637 9.57022 15.6837 8.13272 16.4309C7.60856 16.134 7.00271 15.9645 6.35727 15.9645C4.3651 15.9645 2.75012 17.5794 2.75012 19.5716C2.75012 19.9858 3.08591 20.3216 3.50012 20.3216C3.91434 20.3216 4.25012 19.9858 4.25012 19.5716C4.25012 18.4079 5.19352 17.4645 6.35727 17.4645C7.52101 17.4645 8.46441 18.4079 8.46441 19.5716C8.46441 19.9858 8.8002 20.3216 9.21441 20.3216C9.62862 20.3216 9.96441 19.9858 9.96441 19.5716C9.96441 18.4079 10.9078 17.4645 12.0716 17.4645C13.2353 17.4645 14.1787 18.4079 14.1787 19.5716C14.1787 19.9858 14.5145 20.3216 14.9287 20.3216C15.3429 20.3216 15.6787 19.9858 15.6787 19.5716C15.6787 18.4079 16.6221 17.4645 17.7858 17.4645C18.9496 17.4645 19.893 18.4079 19.893 19.5716C19.893 19.9858 20.2288 20.3216 20.643 20.3216C21.0572 20.3216 21.393 19.9858 21.393 19.5716C21.393 18.4079 22.3364 17.4645 23.5001 17.4645C24.6639 17.4645 25.6073 18.4079 25.6073 19.5716C25.6073 19.9858 25.9431 20.3216 26.3573 20.3216C26.7715 20.3216 27.1073 19.9858 27.1073 19.5716C27.1073 17.5794 25.4923 15.9645 23.5001 15.9645C22.3848 15.9645 21.3877 16.4706 20.7261 17.2658C20.5061 17.1398 20.2291 16.921 19.9443 16.3439Z"/>
</mask>
<path d="M20.4151 12.0749L19.3195 11.0504L19.3194 11.0505L20.4151 12.0749ZM19.9443 16.3439L18.5992 17.0079V17.0079L19.9443 16.3439ZM22.3888 11.6386L22.8773 10.2204L22.8769 10.2203L22.3888 11.6386ZM23.499 12.4286L24.7496 11.6004V11.6004L23.499 12.4286ZM23.7848 13.1429L22.3326 13.5185L23.0623 16.3395L24.9343 14.1065L23.7848 13.1429ZM12.2492 11.0951L10.9073 10.4249L10.9073 10.4249L12.2492 11.0951ZM11.4857 12.5516L10.1858 11.8032L10.1857 11.8032L11.4857 12.5516ZM8.13272 16.4309L7.39334 17.7361L8.10193 18.1375L8.82455 17.7619L8.13272 16.4309ZM20.7261 17.2658L19.9804 18.5673L21.0734 19.1935L21.8791 18.2253L20.7261 17.2658ZM19.3194 11.0505C17.8398 12.6332 17.6476 15.08 18.5992 17.0079L21.2893 15.68C20.809 14.7068 21.003 13.6425 21.5109 13.0992L19.3194 11.0505ZM22.8769 10.2203C22.2421 10.0018 21.5671 10.0122 20.9985 10.1378C20.4386 10.2614 19.7986 10.538 19.3195 11.0504L21.5108 13.0994C21.4778 13.1347 21.4661 13.1339 21.4989 13.1171C21.5295 13.1014 21.5797 13.0817 21.6454 13.0672C21.7107 13.0528 21.7743 13.0473 21.8274 13.0488C21.8819 13.0503 21.9055 13.0586 21.9007 13.057L22.8769 10.2203ZM24.7496 11.6004C24.2031 10.7751 23.5253 10.4436 22.8773 10.2204L21.9004 13.0569C22.0941 13.1236 22.1565 13.16 22.1783 13.1747C22.1863 13.18 22.1912 13.1841 22.1975 13.1905C22.2045 13.1977 22.2218 13.2166 22.2484 13.2568L24.7496 11.6004ZM23.7848 13.1429C25.2371 12.7672 25.237 12.7671 25.237 12.7669C25.237 12.7669 25.2369 12.7667 25.2369 12.7666C25.2368 12.7664 25.2368 12.7662 25.2367 12.766C25.2366 12.7655 25.2365 12.7651 25.2364 12.7646C25.2361 12.7635 25.2358 12.7624 25.2355 12.7612C25.2348 12.7587 25.234 12.7557 25.2331 12.7523C25.2313 12.7454 25.229 12.7368 25.2262 12.7265C25.2206 12.706 25.2129 12.6787 25.2034 12.646C25.1845 12.5815 25.1572 12.4923 25.1223 12.3911C25.0646 12.2234 24.9434 11.8929 24.7496 11.6004L22.2484 13.2568C22.2205 13.2147 22.2422 13.2414 22.2859 13.3682C22.3018 13.4143 22.3148 13.4567 22.3236 13.4869C22.3279 13.5016 22.331 13.5125 22.3326 13.5184C22.3334 13.5212 22.3338 13.5228 22.3338 13.5229C22.3338 13.5229 22.3337 13.5226 22.3335 13.5219C22.3334 13.5215 22.3333 13.5211 22.3332 13.5205C22.3331 13.5202 22.333 13.5199 22.3329 13.5196C22.3329 13.5194 22.3328 13.5192 22.3328 13.519C22.3328 13.519 22.3327 13.5188 22.3327 13.5188C22.3327 13.5186 22.3326 13.5185 23.7848 13.1429ZM23.4277 9.96825C23.4277 10.5646 23.2368 11.123 23.0166 11.56C22.9092 11.7732 22.8027 11.942 22.7267 12.0527C22.689 12.1076 22.6598 12.1469 22.643 12.1688C22.6346 12.1798 22.6294 12.1862 22.628 12.1881C22.6272 12.189 22.6275 12.1887 22.6287 12.1872C22.6293 12.1865 22.6301 12.1855 22.6312 12.1841C22.6318 12.1835 22.6324 12.1827 22.6331 12.1819C22.6334 12.1815 22.6338 12.181 22.6342 12.1806C22.6344 12.1804 22.6347 12.18 22.6348 12.1799C22.6351 12.1795 22.6354 12.1792 23.7848 13.1429C24.9343 14.1065 24.9347 14.1062 24.935 14.1058C24.9351 14.1056 24.9354 14.1053 24.9356 14.105C24.9361 14.1045 24.9365 14.1039 24.937 14.1033C24.938 14.1022 24.939 14.1009 24.9401 14.0996C24.9423 14.0969 24.9448 14.0939 24.9476 14.0905C24.9531 14.0838 24.9598 14.0757 24.9674 14.0661C24.9827 14.0471 25.0021 14.0225 25.0249 13.9926C25.0706 13.9329 25.1307 13.8516 25.2001 13.7504C25.3385 13.5489 25.5176 13.2636 25.6959 12.9096C26.0472 12.2122 26.4277 11.1832 26.4277 9.96825H23.4277ZM19.7849 7.5C22.2731 7.5 23.4277 8.87274 23.4277 9.96825H26.4277C26.4277 6.5389 23.16 4.5 19.7849 4.5V7.5ZM13.5912 11.7654C14.2488 10.4488 14.7658 9.45479 15.6052 8.7263C16.3766 8.05683 17.5673 7.5 19.7849 7.5V4.5C17.0116 4.5 15.0699 5.21859 13.6388 6.46062C12.2758 7.64361 11.5205 9.1972 10.9073 10.4249L13.5912 11.7654ZM12.7857 13.3C13.0838 12.7821 13.3489 12.2504 13.5912 11.7654L10.9073 10.4249C10.6582 10.9236 10.4322 11.3752 10.1858 11.8032L12.7857 13.3ZM8.82455 17.7619C10.6997 16.7872 11.8177 14.9815 12.7857 13.2999L10.1857 11.8032C9.18248 13.546 8.44075 14.5803 7.44089 15.1L8.82455 17.7619ZM6.35727 17.4645C6.73684 17.4645 7.08875 17.5635 7.39334 17.7361L8.8721 15.1258C8.12837 14.7045 7.26859 14.4645 6.35727 14.4645V17.4645ZM4.25012 19.5716C4.25012 18.4079 5.19352 17.4645 6.35727 17.4645V14.4645C3.53667 14.4645 1.25012 16.751 1.25012 19.5716H4.25012ZM3.50012 18.8216C3.91434 18.8216 4.25012 19.1574 4.25012 19.5716H1.25012C1.25012 20.8143 2.25748 21.8216 3.50012 21.8216V18.8216ZM2.75012 19.5716C2.75012 19.1574 3.08591 18.8216 3.50012 18.8216V21.8216C4.74276 21.8216 5.75012 20.8143 5.75012 19.5716H2.75012ZM6.35727 15.9645C4.36509 15.9645 2.75012 17.5794 2.75012 19.5716H5.75012C5.75012 19.2363 6.02195 18.9645 6.35727 18.9645V15.9645ZM9.96441 19.5716C9.96441 17.5794 8.34944 15.9645 6.35727 15.9645V18.9645C6.69258 18.9645 6.96441 19.2363 6.96441 19.5716H9.96441ZM9.21441 18.8216C9.62862 18.8216 9.96441 19.1574 9.96441 19.5716H6.96441C6.96441 20.8143 7.97177 21.8216 9.21441 21.8216V18.8216ZM8.46441 19.5716C8.46441 19.1574 8.80019 18.8216 9.21441 18.8216V21.8216C10.457 21.8216 11.4644 20.8143 11.4644 19.5716H8.46441ZM12.0716 15.9645C10.0794 15.9645 8.46441 17.5794 8.46441 19.5716H11.4644C11.4644 19.2363 11.7362 18.9645 12.0716 18.9645V15.9645ZM15.6787 19.5716C15.6787 17.5794 14.0637 15.9645 12.0716 15.9645V18.9645C12.4069 18.9645 12.6787 19.2363 12.6787 19.5716H15.6787ZM14.9287 18.8216C15.3429 18.8216 15.6787 19.1574 15.6787 19.5716H12.6787C12.6787 20.8143 13.6861 21.8216 14.9287 21.8216V18.8216ZM14.1787 19.5716C14.1787 19.1574 14.5145 18.8216 14.9287 18.8216V21.8216C16.1713 21.8216 17.1787 20.8143 17.1787 19.5716H14.1787ZM17.7858 15.9645C15.7937 15.9645 14.1787 17.5794 14.1787 19.5716H17.1787C17.1787 19.2363 17.4505 18.9645 17.7858 18.9645V15.9645ZM21.393 19.5716C21.393 17.5794 19.778 15.9645 17.7858 15.9645V18.9645C18.1212 18.9645 18.393 19.2363 18.393 19.5716H21.393ZM20.643 18.8216C21.0572 18.8216 21.393 19.1574 21.393 19.5716H18.393C18.393 20.8143 19.4003 21.8216 20.643 21.8216V18.8216ZM19.893 19.5716C19.893 19.1574 20.2288 18.8216 20.643 18.8216V21.8216C21.8856 21.8216 22.893 20.8143 22.893 19.5716H19.893ZM23.5001 15.9645C21.508 15.9645 19.893 17.5794 19.893 19.5716H22.893C22.893 19.2363 23.1648 18.9645 23.5001 18.9645V15.9645ZM27.1073 19.5716C27.1073 17.5794 25.4923 15.9645 23.5001 15.9645V18.9645C23.8354 18.9645 24.1073 19.2363 24.1073 19.5716H27.1073ZM26.3573 18.8216C26.7715 18.8216 27.1073 19.1574 27.1073 19.5716H24.1073C24.1073 20.8143 25.1146 21.8216 26.3573 21.8216V18.8216ZM25.6073 19.5716C25.6073 19.1574 25.9431 18.8216 26.3573 18.8216V21.8216C27.5999 21.8216 28.6073 20.8143 28.6073 19.5716H25.6073ZM23.5001 17.4645C24.6639 17.4645 25.6073 18.4079 25.6073 19.5716H28.6073C28.6073 16.751 26.3207 14.4645 23.5001 14.4645V17.4645ZM21.8791 18.2253C22.268 17.7579 22.8491 17.4645 23.5001 17.4645V14.4645C21.9205 14.4645 20.5075 15.1834 19.5731 16.3064L21.8791 18.2253ZM18.5992 17.0079C19.0101 17.8403 19.4903 18.2865 19.9804 18.5673L21.4718 15.9643C21.4629 15.9592 21.4633 15.9589 21.4664 15.9614C21.4697 15.9639 21.4673 15.9626 21.4589 15.9536C21.4422 15.9355 21.3796 15.8628 21.2893 15.68L18.5992 17.0079Z" fill="white" mask="url(#path-2-inside-1)"/>
</svg>

<svg width="32" height="32" fill="none" xmlns="http://www.w3.org/2000/svg"><path d="M6.5 25.334c0-1.473 1.268-2.667 2.833-2.667 1.565 0 2.833 1.194 2.833 2.666 0-1.472 1.269-2.666 2.834-2.666 1.564 0 2.833 1.194 2.833 2.666 0-1.472 1.269-2.666 2.833-2.666 1.565 0 2.834 1.194 2.834 2.666m5.666 0c0-1.472-1.268-2.666-2.833-2.666-1.565 0-2.833 1.194-2.833 2.666" stroke="#fff" stroke-width="1.5" stroke-linecap="round" stroke-linejoin="round"/><mask id="a" fill="#fff"><path fill-rule="evenodd" clip-rule="evenodd" d="M19.944 16.344c-.716-1.45-.523-3.206.471-4.27.428-.457 1.333-.656 1.974-.435.483.166.816.346 1.11.79.166.25.286.714.286.714s1.143-1.363 1.143-3.175C24.928 7.706 22.717 6 19.785 6c-4.991 0-6.265 2.55-7.536 5.095-.245.492-.491.984-.763 1.457-.986 1.712-1.916 3.132-3.353 3.879a3.607 3.607 0 00-5.383 3.14.75.75 0 001.5 0 2.107 2.107 0 014.214 0 .75.75 0 001.5 0 2.107 2.107 0 014.215 0 .75.75 0 001.5 0 2.107 2.107 0 014.214 0 .75.75 0 001.5 0 2.107 2.107 0 014.214 0 .75.75 0 001.5 0 3.607 3.607 0 00-6.38-2.305c-.22-.126-.498-.345-.783-.922z"/></mask><path d="M20.415 12.075L19.32 11.05l1.095 1.025zm-.47 4.269l-1.346.664 1.345-.664zm2.444-4.705l.488-1.419-.488 1.419zm1.11.79l1.25-.829-1.25.829zm.286.714l-1.452.375.73 2.822 1.871-2.233-1.15-.964zm-11.536-2.048l-1.342-.67 1.342.67zm-.763 1.457l-1.3-.749 1.3.749zM8.133 16.43l-.74 1.305.709.401.723-.375-.692-1.331zm12.593.835l-.746 1.301 1.093.627.806-.969-1.153-.96zM19.32 11.05c-1.48 1.582-1.671 4.029-.72 5.957l2.69-1.328c-.48-.973-.286-2.037.222-2.58l-2.192-2.05zm3.558-.83c-.635-.22-1.31-.209-1.878-.083-.56.123-1.2.4-1.68.912l2.192 2.05c-.033.035-.045.034-.012.017a.765.765 0 01.329-.068c.054.001.078.01.073.008l.976-2.837zm1.873 1.38c-.547-.826-1.225-1.157-1.873-1.38l-.977 2.836c.194.067.257.103.278.118l.02.015a.453.453 0 01.05.067L24.75 11.6zm-.965 1.542l1.452-.376v-.002a.161.161 0 01-.004-.013 2.687 2.687 0 00-.03-.106 5.718 5.718 0 00-.08-.255 3.58 3.58 0 00-.373-.79l-2.502 1.656c-.027-.042-.006-.016.038.111a2.618 2.618 0 01.048.155v-.003h-.001v-.001l1.452-.376zm-.357-3.175c0 .597-.191 1.155-.411 1.592a4.295 4.295 0 01-.374.609c-.008.01-.014.017-.015.02v-.002l.003-.003.002-.002.001-.001v-.001l1.15.963 1.151.963v-.001l.002-.002.003-.003.008-.01.02-.024.057-.073a7.278 7.278 0 00.671-1.083c.351-.698.732-1.727.732-2.942h-3zM19.785 7.5c2.488 0 3.643 1.373 3.643 2.468h3c0-3.43-3.268-5.468-6.643-5.468v3zm-6.194 4.265c.658-1.316 1.175-2.31 2.014-3.039.772-.67 1.962-1.226 4.18-1.226v-3c-2.773 0-4.715.719-6.146 1.96-1.363 1.184-2.118 2.737-2.732 3.965l2.684 1.34zm-.805 1.535c.298-.518.563-1.05.805-1.535l-2.684-1.34c-.249.499-.475.95-.721 1.378l2.6 1.497zm-3.961 4.462c1.875-.975 2.993-2.78 3.96-4.462l-2.6-1.497C9.183 13.546 8.442 14.58 7.442 15.1l1.384 2.662zm-2.468-.297c.38 0 .732.099 1.036.271l1.48-2.61a5.091 5.091 0 00-2.516-.662v3zM4.25 19.572c0-1.164.944-2.107 2.107-2.107v-3a5.107 5.107 0 00-5.107 5.107h3zm-.75-.75a.75.75 0 01.75.75h-3a2.25 2.25 0 002.25 2.25v-3zm-.75.75a.75.75 0 01.75-.75v3a2.25 2.25 0 002.25-2.25h-3zm3.607-3.607a3.607 3.607 0 00-3.607 3.607h3c0-.336.272-.607.607-.607v-3zm3.607 3.607a3.607 3.607 0 00-3.607-3.607v3c.336 0 .607.271.607.607h3zm-.75-.75a.75.75 0 01.75.75h-3a2.25 2.25 0 002.25 2.25v-3zm-.75.75a.75.75 0 01.75-.75v3a2.25 2.25 0 002.25-2.25h-3zm3.608-3.607a3.607 3.607 0 00-3.608 3.607h3c0-.336.272-.607.608-.607v-3zm3.607 3.607a3.607 3.607 0 00-3.607-3.607v3c.335 0 .607.271.607.607h3zm-.75-.75a.75.75 0 01.75.75h-3a2.25 2.25 0 002.25 2.25v-3zm-.75.75a.75.75 0 01.75-.75v3a2.25 2.25 0 002.25-2.25h-3zm3.607-3.607a3.607 3.607 0 00-3.607 3.607h3c0-.336.272-.607.607-.607v-3zm3.607 3.607a3.607 3.607 0 00-3.607-3.607v3c.335 0 .607.271.607.607h3zm-.75-.75a.75.75 0 01.75.75h-3a2.25 2.25 0 002.25 2.25v-3zm-.75.75a.75.75 0 01.75-.75v3a2.25 2.25 0 002.25-2.25h-3zm3.607-3.607a3.607 3.607 0 00-3.607 3.607h3c0-.336.272-.607.607-.607v-3zm3.607 3.607a3.607 3.607 0 00-3.607-3.607v3c.335 0 .607.271.607.607h3zm-.75-.75a.75.75 0 01.75.75h-3a2.25 2.25 0 002.25 2.25v-3zm-.75.75a.75.75 0 01.75-.75v3a2.25 2.25 0 002.25-2.25h-3zM23.5 17.465c1.164 0 2.107.943 2.107 2.107h3a5.107 5.107 0 00-5.107-5.107v3zm-1.62.76a2.1 2.1 0 011.62-.76v-3a5.1 5.1 0 00-3.927 1.841l2.306 1.92zm-3.28-1.217c.41.832.89 1.279 1.38 1.56l1.492-2.604-.006-.003-.007-.007a1.185 1.185 0 01-.17-.274l-2.69 1.328z" fill="#fff" mask="url(#a)"/></svg>
